X:543
T:Picking prunes
C:anon.
O:Hungary
Z:Transcribed by Frank Nordberg - http://www.musicaviva.com
F:http://abc.musicaviva.com/tunes/hungary/picking-prunes.abc
M:2/4
L:1/8
Q:252
K:Am
AA aa|ga2a|dd gf|ee2A|
d2gf|ed cG|cc dc|A2A z :|
W:
W:
W:  From Musica Viva - http://www.musicaviva.com
W:  the Internet center for free sheet music downloads.
